src/images/stack-gatsby.svg

<svg xmlns="http://www.w3.org/2000/svg" width="181" height="181" fill="none" viewBox="0 0 181 181"><rect width="181" height="181" fill="#fff"/><path fill="#769FD1" fill-rule="evenodd" d="M31.8924 91.9257C31.8924 60.1546 58.1122 34.4102 90.4596 34.4102C122.807 34.4102 149.017 60.1546 149.017 91.9257C149.017 123.697 122.797 149.441 90.4596 149.441C58.1223 149.441 31.8924 123.697 31.8924 91.9257Z" clip-rule="evenodd"/><path stroke="#fff" stroke-linecap="round" stroke-linejoin="round" stroke-width="2" d="M120.734 62.8545C120.734 62.8545 106.648 44.5018 84.0386 50.7205C60.8423 57.1111 52.2574 78.2446 52.2574 78.2446L103.696 130.33C103.696 130.33 115.496 124.111 123.029 115.264C130.563 106.416 130.896 92.3303 130.896 92.3303L108.944 92.9875"/><path fill="#fff" fill-rule="evenodd" stroke="#fff" stroke-linecap="round" stroke-linejoin="round" d="M48.334 92.6638L89.9944 132.969C89.9944 132.969 70.5799 134.516 60.1749 124.445C49.7699 114.374 48.334 92.6638 48.334 92.6638Z" clip-rule="evenodd"/></svg>

<svg fill="none" viewBox="0 0 181 181"><path fill="#fff" d="M0 0h181v181H0z"/><path fill="#769FD1" fill-rule="evenodd" d="M31.892 91.926c0-31.771 26.22-57.516 58.568-57.516 32.347 0 58.557 25.745 58.557 57.516 0 31.771-26.22 57.515-58.557 57.515-32.338 0-58.568-25.744-58.568-57.515z" clip-rule="evenodd"/><path stroke="#fff" stroke-linecap="round" stroke-linejoin="round" stroke-width="2" d="M120.734 62.855S106.648 44.502 84.039 50.72c-23.197 6.39-31.782 27.524-31.782 27.524l51.439 52.085s11.8-6.219 19.333-15.066c7.534-8.848 7.867-22.934 7.867-22.934l-21.952.657"/><path fill="#fff" fill-rule="evenodd" stroke="#fff" stroke-linecap="round" stroke-linejoin="round" d="M48.334 92.664l41.66 40.305s-19.414 1.547-29.82-8.524c-10.404-10.071-11.84-31.781-11.84-31.781z" clip-rule="evenodd"/></svg>
